svg/UnitedNations-Flags/flag-cx.svg

<?xml version="1.0" encoding="UTF-8" standalone="no"?>
<!-- Created with Sodipodi ("http://www.sodipodi.com/") --><svg height="256" id="svg697" inkscape:output_extension="org.inkscape.output.svg.inkscape" inkscape:version="0.46" sodipodi:docbase="C:\Documents and Settings\Owner\Desktop" sodipodi:docname="Flag_of_Christmas_Island.svg" sodipodi:version="0.32" version="1.0" width="256" xmlns="http://www.w3.org/2000/svg" xmlns:cc="http://creativecommons.org/ns#" xmlns:dc="http://purl.org/dc/elements/1.1/" xmlns:inkscape="http://www.inkscape.org/namespaces/inkscape" xmlns:rdf="http://www.w3.org/1999/02/22-rdf-syntax-ns#" xmlns:sodipodi="http://sodipodi.sourceforge.net/DTD/sodipodi-0.dtd" xmlns:svg="http://www.w3.org/2000/svg">
  <metadata>
    <rdf:RDF xmlns:cc="http://web.resource.org/cc/" xmlns:dc="http://purl.org/dc/elements/1.1/" xmlns:rdf="http://www.w3.org/1999/02/22-rdf-syntax-ns#">
      <cc:Work rdf:about="">
        <dc:title></dc:title>
        <dc:description></dc:description>
        <dc:subject>
          <rdf:Bag>
            <rdf:li></rdf:li>
            <rdf:li>flags</rdf:li>
            <rdf:li>oceania</rdf:li>
            <rdf:li>australia</rdf:li>
            <rdf:li>signs_and_symbols</rdf:li>
          </rdf:Bag>
        </dc:subject>
        <dc:publisher>
          <cc:Agent rdf:about="http://www.openclipart.org">
            <dc:title>Source: Wikimedia Commons, Source: Wikimedia Commons, Source: Wikimedia Commons, Source: Wikimedia Commons, Source: Wikimedia Commons</dc:title>
          </cc:Agent>
        </dc:publisher>
        <dc:creator>
          <cc:Agent>
            <dc:title></dc:title>
          </cc:Agent>
        </dc:creator>
        <dc:rights>
          <cc:Agent>
            <dc:title></dc:title>
          </cc:Agent>
        </dc:rights>
        <dc:date></dc:date>
        <dc:format>image/svg+xml</dc:format>
        <dc:type rdf:resource="http://purl.org/dc/dcmitype/StillImage"/>
        <cc:license rdf:resource="http://en.wikipedia.org/wiki/Public_domain"/>
        <dc:language>en</dc:language>
      </cc:Work>
    </rdf:RDF>
  </metadata>
  <defs id="defs699">
    <inkscape:perspective id="perspective2447" inkscape:persp3d-origin="500 : 166.66667 : 1" inkscape:vp_x="0 : 250 : 1" inkscape:vp_y="0 : 1000 : 0" inkscape:vp_z="1000 : 250 : 1" sodipodi:type="inkscape:persp3d"/>
  </defs>
  <sodipodi:namedview id="base" inkscape:current-layer="g4031" inkscape:cx="496.06299" inkscape:cy="248.03149" inkscape:window-height="674" inkscape:window-width="853" inkscape:window-x="22" inkscape:window-y="31" inkscape:zoom="0.67027778" showgrid="true" snaptogrid="false"/>
  <g id="g4031" transform="matrix(1.007936,0,0,1.007936,0,3.844975e-5)">
    <rect height="126.99218" id="rect3447" style="font-size:12px;fill:#0021ad;fill-opacity:1;fill-rule:evenodd;stroke-width:1pt" width="253.98438" x="0" y="63.496059"/>
    <path d="M 3.1640591e-07,63.496057 L 253.98438,190.48825 L 253.83897,63.590137 L 3.1640591e-07,63.496057 z" id="path3446" sodipodi:nodetypes="cccc" style="font-size:12px;fill:#1c8a42;fill-opacity:1;fill-rule:evenodd;stroke:none;stroke-width:2.23796005pt;stroke-opacity:1"/>
    <path d="M 227.50007,97.283752 A 34.921883,34.921875 0 1 1 157.6563,97.283752 A 34.921883,34.921875 0 1 1 227.50007,97.283752 z" id="path733" sodipodi:cx="192.57819" sodipodi:cy="97.283752" sodipodi:rx="34.921883" sodipodi:ry="34.921875" sodipodi:type="arc" style="fill:#ffc639;fill-opacity:1;fill-rule:evenodd;stroke:none;stroke-width:1pt;stroke-linecap:butt;stroke-linejoin:miter;stroke-opacity:1" transform="matrix(0.6569101,0,0,0.6569098,0.7388591,63.016097)"/>
    <path d="M 112.98361,116.68649 C 114.55289,118.8415 116.92985,122.44956 118.84319,121.5085 C 120.33439,121.51337 121.10572,121.6191 121.30796,122.61084 C 124.82848,123.21091 130.74566,121.72534 134.4249,116.93199 C 134.4249,116.93199 134.73594,116.97218 134.62765,115.14972 C 134.64813,114.35484 135.71335,114.51535 135.73895,114.77161 C 135.88794,115.16636 135.86106,115.46255 136.06074,115.47228 C 136.51591,115.31996 137.13491,114.3044 137.65383,113.6598 C 137.79591,113.37538 137.7186,113.07458 137.75162,112.71797 C 138.02503,112.04367 138.70804,112.19087 138.85268,112.54312 C 138.98196,112.77045 138.984,112.94581 139.11328,113.17314 C 139.80653,113.63496 141.05914,113.20386 141.15693,113.20386 C 141.27981,112.63912 141.64333,112.69212 141.64333,112.69212 C 142.10516,112.58997 141.92493,112.63119 142.22727,112.7894 C 141.95975,115.83836 142.82708,115.97276 142.7554,117.5382 C 142.78637,119.28284 142.22727,119.77897 142.22727,120.44713 C 142.40468,121.2589 144.97978,121.28706 144.07329,121.9757 C 143.27687,122.40143 144.07764,123.19811 142.87751,123.50659 C 139.39258,125.27657 138.72442,126.79465 138.72442,126.79465 C 138.72442,126.79465 137.8489,128.44892 137.75162,128.44892 C 137.1664,129.55254 136.42656,128.9494 136.01619,129.48803 C 135.81063,130.16412 135.57971,131.66096 135.99059,132.43945 C 136.19565,133.50902 135.96499,134.09245 135.70797,135.16278 C 135.47706,137.39459 134.59258,137.73277 134.49043,138.51766 C 134.07955,139.35427 134.57671,143.28515 134.18784,143.28515 C 131.59174,143.33635 129.60211,142.78851 128.57555,142.58371 C 129.57651,138.27216 129.18893,134.48131 129.18893,134.09245 C 128.9319,131.00816 124.56684,131.75901 123.90022,131.34864 C 123.34572,131.23088 122.99756,130.7798 122.80249,130.58499 C 122.18604,130.52022 121.95513,130.37814 121.33868,130.31388 C 121.03046,130.46748 121.21632,130.62723 120.52947,130.83817 C 118.78969,131.04809 118.0199,129.32137 118.0199,129.32137 C 118.10489,128.73923 114.10745,129.4399 111.93426,128.93558 C 111.04313,129.43222 110.65426,130.90089 109.92364,131.076 C 109.9029,131.53117 108.72402,130.70198 108.4862,130.25398 C 108.43525,128.95068 109.62207,128.37315 109.62207,128.37315 C 110.56287,127.71164 111.12249,127.60284 111.57586,127.1464 C 111.80319,126.01129 111.68825,125.17212 112.17209,124.31887 C 112.58143,123.66787 113.18508,123.97327 113.59442,123.68092 C 114.03577,123.38934 114.22111,121.48034 113.81586,120.95708 C 113.81586,120.95708 112.05407,119.36758 111.95705,119.27055 C 111.38335,117.62626 112.62674,116.56745 112.98361,116.68649 z" id="path732" sodipodi:nodetypes="cccccccccccccccccccccccccccccccccccccccccc" style="fill:#1c8a42;fill-opacity:1;fill-rule:evenodd;stroke:none;stroke-width:1pt;stroke-linecap:butt;stroke-linejoin:miter;stroke-opacity:1"/>
    <path d="M 222.98097,88.273625 C 221.94136,84.160655 212.63857,75.302326 205.64746,69.665416 C 203.97732,68.528316 202.88957,69.205586 203.10692,70.826806 C 203.97808,72.278616 204.63037,73.874876 205.50205,75.326646 C 205.74397,76.294276 206.20349,76.971556 206.44541,77.939186 C 206.44541,77.939186 206.5176,79.608356 206.66378,79.753506 C 208.84055,82.149415 209.13085,84.181025 209.13085,84.181025 C 210.38884,86.600485 211.50142,88.366295 213.70353,90.349965 C 216.17111,91.898255 214.35582,96.712844 214.42878,99.277714 C 214.42878,100.8987 213.26807,100.70517 212.25175,100.51112 C 204.24407,93.156495 196.30858,93.132685 189.31619,91.003795 C 186.58313,90.713235 186.53449,92.019855 187.42972,92.745105 C 192.31651,97.971084 196.91376,101.52744 202.96202,104.50318 C 203.97808,105.13243 204.99364,105.76142 206.00996,106.39067 C 207.17143,107.3581 208.33213,108.32578 209.49361,109.29346 C 212.17905,111.03554 212.39716,112.63247 212.39716,112.77685 C 212.4691,116.04316 210.72727,118.58319 210.21911,119.59951 C 209.30212,123.06345 207.46173,123.66403 207.46173,123.66403 C 192.51056,133.75273 184.67132,136.36522 160.43016,133.24432 C 160.06741,133.05078 157.74446,133.43785 160.43016,134.40579 C 166.60002,136.46198 181.75471,139.75875 196.41635,132.81552 C 199.93661,130.34742 202.29181,131.15715 204.84183,129.67977 C 209.02845,127.09776 215.00964,123.88214 216.09815,123.51939 C 219.3642,121.7773 228.50878,119.81762 230.61387,118.07554 C 233.03307,117.88175 235.53931,117.56457 235.70879,115.48405 C 236.50444,114.97103 237.66488,115.3453 238.52888,113.65186 C 240.44453,113.31829 240.12197,112.6317 240.12197,112.6317 C 239.63839,111.27746 237.84767,110.72066 236.56613,109.72917 C 234.67864,109.09967 233.37279,108.90639 231.9932,109.58351 C 231.55775,109.77755 231.12229,109.97083 230.68683,110.16437 C 230.68683,110.16437 228.6547,109.87432 228.6547,109.72917 C 224.13861,109.48136 224.57816,94.515604 222.98097,88.273625 z" id="path3443" sodipodi:nodetypes="cccccccccccccccccccccscccccccccc" style="fill:#ffc639;fill-opacity:1;fill-rule:evenodd;stroke:none;stroke-width:1pt;stroke-linecap:butt;stroke-linejoin:miter;stroke-opacity:0.49685501"/>
    <path d="M 354.375,73.88562 A 2.070312,1.367188 0 1 1 350.23438,73.88562 A 2.070312,1.367188 0 1 1 354.375,73.88562 z" id="path3445" sodipodi:cx="352.30469" sodipodi:cy="73.88562" sodipodi:rx="2.070312" sodipodi:ry="1.367188" sodipodi:type="arc" style="fill:#1c8a42;fill-opacity:1;fill-rule:evenodd;stroke:none;stroke-width:1pt;stroke-linecap:butt;stroke-linejoin:miter;stroke-opacity:1" transform="matrix(0.5138488,0.1613774,-0.1725605,0.4805473,64.223366,20.07819)"/>
    <polygon d="M 73.826341,356.02127 L 60.023805,343.10041 L 46.056385,355.84285 L 47.552578,336.99557 L 28.881593,334.02019 L 44.54985,323.43887 L 35.234933,306.98618 L 53.276738,312.63878 L 60.33221,295.098 L 67.161716,312.72799 L 85.274664,307.30768 L 75.749113,323.63932 L 91.280117,334.42109 L 72.572443,337.15632 L 73.826341,356.02127 z" id="polygon3451" inkscape:flatsided="false" inkscape:randomized="0" inkscape:rounded="0" points="73.8263,356.021 60.0238,343.1 46.0564,355.843 47.5526,336.996 28.8816,334.02 44.5499,323.439 35.2349,306.986 53.2767,312.639 60.3322,295.098 67.1617,312.728 85.2747,307.308 75.7491,323.639 91.2801,334.421 72.5724,337.156 73.8263,356.021 " sodipodi:arg1="1.1284221" sodipodi:arg2="1.577221" sodipodi:cx="60.126606" sodipodi:cy="327.09961" sodipodi:r1="32.00227" sodipodi:r2="16.001135" sodipodi:sides="7" sodipodi:type="star" style="font-size:12px;fill:#ffffff;fill-opacity:1;fill-rule:evenodd;stroke-width:1pt" transform="matrix(0.2346423,0,0,0.234642,30.466037,28.45411)"/>
    <polygon d="M 159.75957,320.13498 L 146.82941,311.27788 L 134.24003,320.61301 L 138.66799,305.5787 L 125.89942,296.4902 L 141.56621,296.05559 L 146.26419,281.10346 L 151.51883,295.86916 L 167.19091,295.71673 L 154.77167,305.27705 L 159.75957,320.13498 z" id="polygon3461" inkscape:flatsided="false" inkscape:randomized="0" inkscape:rounded="0" points="159.76,320.135 146.829,311.278 134.24,320.613 138.668,305.579 125.899,296.49 141.566,296.056 146.264,281.103 151.519,295.869 167.191,295.717 154.772,305.277 159.76,320.135 " sodipodi:arg1="0.92374814" sodipodi:arg2="1.5520667" sodipodi:cx="146.67082" sodipodi:cy="302.81168" sodipodi:r1="21.712027" sodipodi:r2="8.4676905" sodipodi:sides="5" sodipodi:type="star" style="font-size:12px;fill:#ffffff;fill-opacity:1;fill-rule:evenodd;stroke-width:1pt" transform="matrix(0.2701365,0,0,0.2630785,16.120328,64.497087)"/>
    <polygon d="M 73.826341,356.02127 L 60.023805,343.10041 L 46.056385,355.84285 L 47.552578,336.99557 L 28.881593,334.02019 L 44.54985,323.43887 L 35.234933,306.98618 L 53.276738,312.63878 L 60.33221,295.098 L 67.161716,312.72799 L 85.274664,307.30768 L 75.749113,323.63932 L 91.280117,334.42109 L 72.572443,337.15632 L 73.826341,356.02127 z" id="polygon1880" inkscape:flatsided="false" inkscape:randomized="0" inkscape:rounded="0" points="73.8263,356.021 60.0238,343.1 46.0564,355.843 47.5526,336.996 28.8816,334.02 44.5499,323.439 35.2349,306.986 53.2767,312.639 60.3322,295.098 67.1617,312.728 85.2747,307.308 75.7491,323.639 91.2801,334.421 72.5724,337.156 73.8263,356.021 " sodipodi:arg1="1.1284221" sodipodi:arg2="1.577221" sodipodi:cx="60.126606" sodipodi:cy="327.09961" sodipodi:r1="32.00227" sodipodi:r2="16.001135" sodipodi:sides="7" sodipodi:type="star" style="font-size:12px;fill:#ffffff;fill-opacity:1;fill-rule:evenodd;stroke-width:1pt" transform="matrix(0.2346423,0,0,0.234642,58.004969,50.049668)"/>
    <polygon d="M 73.826341,356.02127 L 60.023805,343.10041 L 46.056385,355.84285 L 47.552578,336.99557 L 28.881593,334.02019 L 44.54985,323.43887 L 35.234933,306.98618 L 53.276738,312.63878 L 60.33221,295.098 L 67.161716,312.72799 L 85.274664,307.30768 L 75.749113,323.63932 L 91.280117,334.42109 L 72.572443,337.15632 L 73.826341,356.02127 z" id="polygon1881" inkscape:flatsided="false" inkscape:randomized="0" inkscape:rounded="0" points="73.8263,356.021 60.0238,343.1 46.0564,355.843 47.5526,336.996 28.8816,334.02 44.5499,323.439 35.2349,306.986 53.2767,312.639 60.3322,295.098 67.1617,312.728 85.2747,307.308 75.7491,323.639 91.2801,334.421 72.5724,337.156 73.8263,356.021 " sodipodi:arg1="1.1284221" sodipodi:arg2="1.577221" sodipodi:cx="60.126606" sodipodi:cy="327.09961" sodipodi:r1="32.00227" sodipodi:r2="16.001135" sodipodi:sides="7" sodipodi:type="star" style="font-size:12px;fill:#ffffff;fill-opacity:1;fill-rule:evenodd;stroke-width:1pt" transform="matrix(0.2346423,0,0,0.234642,2.0030991,59.750787)"/>
    <polygon d="M 73.826341,356.02127 L 60.023805,343.10041 L 46.056385,355.84285 L 47.552578,336.99557 L 28.881593,334.02019 L 44.54985,323.43887 L 35.234933,306.98618 L 53.276738,312.63878 L 60.33221,295.098 L 67.161716,312.72799 L 85.274664,307.30768 L 75.749113,323.63932 L 91.280117,334.42109 L 72.572443,337.15632 L 73.826341,356.02127 z" id="polygon1883" inkscape:flatsided="false" inkscape:randomized="0" inkscape:rounded="0" points="73.8263,356.021 60.0238,343.1 46.0564,355.843 47.5526,336.996 28.8816,334.02 44.5499,323.439 35.2349,306.986 53.2767,312.639 60.3322,295.098 67.1617,312.728 85.2747,307.308 75.7491,323.639 91.2801,334.421 72.5724,337.156 73.8263,356.021 " sodipodi:arg1="1.1284221" sodipodi:arg2="1.577221" sodipodi:cx="60.126606" sodipodi:cy="327.09961" sodipodi:r1="32.00227" sodipodi:r2="16.001135" sodipodi:sides="7" sodipodi:type="star" style="font-size:12px;fill:#ffffff;fill-opacity:1;fill-rule:evenodd;stroke-width:1pt" transform="matrix(0.2346423,0,0,0.234642,31.106422,96.791364)"/>
  </g>
</svg>

<svg xmlns="http://www.w3.org/2000/svg" viewBox="0 0 256 256" xmlns:xlink="http://www.w3.org/1999/xlink"><defs><path id="0" d="m73.826 356.02l-13.806-12.92-13.96 12.74 1.493-18.84-18.671-2.98 15.668-10.58-9.32-16.45 18.05 5.65 7.05-17.54 6.83 17.63 18.11-5.42-9.52 16.33 15.53 10.78-18.71 2.74 1.256 18.86" stroke-width="1.25" fill-rule="evenodd" fill="#fff"/></defs><g transform="scale(1.0079)"><g fill-rule="evenodd"><path fill="#0021ad" stroke-width="1.25" d="m0 63.5h253.98v126.99h-253.98z"/><path d="m0 63.5l253.98 126.99-.145-126.9-253.84-.094" fill="#1c8a42"/><path d="M227.50007 97.28375A34.921883 34.921875 0 1 1 157.6563 97.28375 34.921883 34.921875 0 1 1 227.50007 97.28375" transform="matrix(.65691 0 0 .65691.739 63.02)" fill="#ffc639"/><path d="m112.98 116.69c1.569 2.155 3.946 5.763 5.86 4.822 1.491.005 2.263.111 2.465 1.102 3.521.6 9.438-.885 13.12-5.679 0 0 .311.04.203-1.782.02-.795 1.086-.634 1.111-.378.149.395.122.691.322.701.455-.152 1.074-1.168 1.593-1.812.142-.284.065-.585.098-.942.273-.674.956-.527 1.101-.175.129.227.131.403.261.63.693.462 1.946.031 2.044.031.123-.565.486-.512.486-.512.462-.102.282-.061.584.097-.268 3.049.6 3.183.528 4.749.031 1.745-.528 2.241-.528 2.909.177.812 2.753.84 1.846 1.529-.796.426.004 1.222-1.196 1.531-3.485 1.77-4.153 3.288-4.153 3.288 0 0-.876 1.654-.973 1.654-.585 1.104-1.325.5-1.735 1.039-.206.676-.436 2.173-.026 2.951.205 1.07-.026 1.653-.283 2.723-.231 2.232-1.115 2.57-1.218 3.355-.411.837.086 4.767-.303 4.767-2.596.051-4.586-.497-5.612-.701 1-4.312.613-8.102.613-8.491-.257-3.084-4.622-2.333-5.289-2.744-.555-.118-.903-.569-1.098-.764-.616-.065-.847-.207-1.464-.271-.308.154-.122.313-.809.524-1.74.21-2.51-1.517-2.51-1.517.085-.582-3.912.119-6.086-.386-.891.497-1.28 1.965-2.01 2.14-.021.455-1.2-.374-1.437-.822-.051-1.303 1.136-1.881 1.136-1.881.941-.662 1.5-.77 1.954-1.227.227-1.135.112-1.974.596-2.828.409-.651 1.013-.346 1.422-.638.441-.292.627-2.201.221-2.724 0 0-1.762-1.59-1.859-1.687-.574-1.644.67-2.703 1.027-2.584" fill="#1c8a42"/><path d="m222.98 88.27c-1.04-4.113-10.342-12.971-17.334-18.608-1.67-1.137-2.758-.46-2.541 1.161.871 1.452 1.523 3.048 2.395 4.5.242.968.701 1.645.943 2.613 0 0 .072 1.669.218 1.814 2.177 2.396 2.467 4.428 2.467 4.428 1.258 2.419 2.371 4.185 4.573 6.169 2.468 1.548.652 6.363.725 8.928 0 1.621-1.161 1.427-2.177 1.233-8.01-7.355-15.943-7.378-22.936-9.507-2.733-.291-2.782 1.016-1.886 1.741 4.887 5.226 9.484 8.782 15.532 11.758 1.016.629 2.032 1.258 3.048 1.887 1.161.967 2.322 1.935 3.484 2.903 2.685 1.742 2.904 3.339 2.904 3.483.072 3.266-1.67 5.806-2.178 6.823-.917 3.464-2.757 4.065-2.757 4.065-14.951 10.09-22.79 12.701-47.03 9.58-.363-.194-2.686.194 0 1.161 6.17 2.056 21.325 5.353 35.986-1.59 3.52-2.468 5.875-1.658 8.425-3.136 4.187-2.582 10.168-5.798 11.256-6.16 3.266-1.742 12.411-3.702 14.516-5.444 2.419-.194 4.925-.511 5.095-2.591.796-.513 1.956-.139 2.82-1.832 1.916-.334 1.593-1.02 1.593-1.02-.484-1.354-2.274-1.911-3.556-2.903-1.887-.629-3.193-.823-4.573-.146-.435.194-.871.387-1.306.581 0 0-2.032-.29-2.032-.435-4.516-.248-4.077-15.214-5.674-21.456" fill="#ffc639"/><path d="M354.375 73.88562A2.070312 1.367188 0 1 1 350.23438 73.88562 2.070312 1.367188 0 1 1 354.375 73.88562" transform="matrix(.51385.16138-.17256.48055 64.22 20.08)" fill="#1c8a42"/></g><use transform="matrix(.23464 0 0 .23464 30.466 28.454)" xlink:href="#0"/><path transform="matrix(.27014 0 0 .26308 16.12 64.5)" fill="#fff" fill-rule="evenodd" stroke-width="1.25" d="m159.76 320.13l-12.93-8.85-12.59 9.33 4.43-15.03-12.77-9.09 15.67-.43 4.69-14.96 5.26 14.77 15.67-.15-12.42 9.56 4.99 14.85"/><use transform="matrix(.23464 0 0 .23464 58 50.05)" xlink:href="#0"/><use transform="matrix(.23464 0 0 .23464 2 59.751)" xlink:href="#0"/><use transform="matrix(.23464 0 0 .23464 31.11 96.79)" xlink:href="#0"/></g></svg>
